build/img/settings.svg

<svg width="23" height="23" viewBox="0 0 23 23" fill="none" xmlns="http://www.w3.org/2000/svg">
<path fill-rule="evenodd" clip-rule="evenodd" d="M11.187 15.8042C8.97787 15.8042 7.18701 14.0133 7.18701 11.8042C7.18701 9.59506 8.97787 7.8042 11.187 7.8042C13.3962 7.8042 15.187 9.59506 15.187 11.8042C15.187 14.0133 13.3962 15.8042 11.187 15.8042ZM13.187 11.8042C13.187 12.9088 12.2916 13.8042 11.187 13.8042C10.0824 13.8042 9.18701 12.9088 9.18701 11.8042C9.18701 10.6996 10.0824 9.8042 11.187 9.8042C12.2916 9.8042 13.187 10.6996 13.187 11.8042Z" fill="#9564AA"/>
<path fill-rule="evenodd" clip-rule="evenodd" d="M17.8432 20.7012L20.0604 18.484L19.2795 15.6472L19.6197 14.8347L22.187 13.386V10.2506L19.627 8.79593L19.2925 7.98487L20.0832 5.14655L17.8644 2.93103L15.0273 3.71168L14.2166 3.37177L12.7678 0.804199H9.63245L8.17773 3.36424L7.36686 3.69866L4.52899 2.90701L2.31371 5.12229L3.09449 7.95987L2.75459 8.77054L0.187012 10.2193V13.3538L2.74475 14.8118L3.07953 15.6235L2.28898 18.4614L4.5051 20.6775L7.34269 19.8967L8.15345 20.2367L9.60228 22.8032H12.7369L14.1937 20.2454L15.0053 19.9107L17.8432 20.7012ZM18.0397 13.4298L17.1679 15.512L17.8232 17.8928L17.2548 18.4612L14.879 17.7993L12.796 18.6584L11.5743 20.8032H10.7699L9.55842 18.6571L7.47856 17.785L5.09648 18.4404L4.52904 17.873L5.19087 15.4972L4.33183 13.4143L2.18701 12.1918V11.3872L4.33411 10.1757L5.20621 8.09575L4.55076 5.71366L5.11702 5.14741L7.49277 5.81015L9.57656 4.95075L10.7963 2.8042H11.5999L12.8115 4.9513L14.8914 5.82339L17.274 5.16782L17.8428 5.73586L17.1811 8.11116L18.0405 10.1948L20.187 11.4145V12.2181L18.0397 13.4298Z" fill="#9564AA"/>
</svg>

<svg width="23" height="23" fill="none" xmlns="http://www.w3.org/2000/svg"><path fill-rule="evenodd" clip-rule="evenodd" d="M11.187 15.804a4 4 0 1 1 0-8 4 4 0 0 1 0 8Zm2-4a2 2 0 1 1-4 0 2 2 0 0 1 4 0Z" fill="#9564AA"/><path fill-rule="evenodd" clip-rule="evenodd" d="m17.843 20.701 2.217-2.217-.78-2.837.34-.812 2.567-1.449v-3.135l-2.56-1.455-.334-.811.79-2.838-2.219-2.216-2.837.78-.81-.34-1.45-2.567H9.633l-1.454 2.56-.811.335-2.838-.792-2.215 2.215.78 2.838-.34.81-2.567 1.45v3.134l2.558 1.458.335.812-.791 2.837 2.216 2.216 2.838-.78.81.34 1.45 2.566h3.134l1.457-2.558.811-.334 2.838.79Zm.197-7.271-.872 2.082.655 2.38-.568.57-2.376-.663-2.083.86-1.222 2.144h-.804l-1.212-2.146-2.08-.872-2.382.655-.567-.567.662-2.376-.86-2.083-2.144-1.222v-.805l2.147-1.211.872-2.08-.655-2.382.566-.567 2.376.663 2.084-.86 1.22-2.146h.803l1.212 2.147 2.08.872 2.382-.655.569.568-.662 2.375.86 2.084 2.146 1.22v.803L18.04 13.43Z" fill="#9564AA"/></svg>
